X:330
T: Xiuchu Siji chun
N: C1020
O: China, Hubei, Jianshi
S: I, 381]
N: Plattenhuelle kopiert.
N: Vereinzelt Verzierungen.
R: Wuge, Xihuagu. Xin minge]
M: 2/4
L: 1/16
K: D
B4d4 | d2B4B2 | d4d4 | B8
d4B2d2 | e4e2d2 | A4B2d2 | d2B4z2
B2d2b2d2 | e4e2d2 | A4B2d2 | B4z4
B2d2B2d2 | A3Bd4 | B2Bdd2B2 | A8
d2d2B2d2 | e2B2d3B | B2B2d2B2 | A8

